source/img/energo/activity-2.2.svg

<svg width="134" height="134" viewBox="0 0 134 134" fill="none" xmlns="http://www.w3.org/2000/svg">
<g clip-path="url(#clip0)">
<path d="M133.883 17.3422C133.883 11.9631 132.304 10.4429 126.867 10.4429C87.4005 10.4429 47.9342 10.4429 8.4679 10.4429C3.08878 10.4429 1.51013 11.9631 1.51013 17.3422C1.51013 44.1208 1.51013 70.9579 1.51013 97.7365C1.51013 103.116 3.08878 104.694 8.4679 104.694C23.3774 104.694 38.2869 104.694 53.1964 104.694C54.3658 104.694 55.4767 104.694 57.1138 104.694C56.763 108.436 56.4706 111.594 56.1783 114.809C55.769 119.195 53.898 121.592 49.6883 122.644C47.9927 123.053 46.1802 122.995 44.543 123.404C44.0168 123.521 43.5491 123.989 43.1398 124.457C43.1983 124.691 43.1983 124.866 43.1983 125.1V125.392C43.1983 125.451 43.1983 125.568 43.1983 125.626C43.666 126.035 44.1338 126.503 44.7184 126.795C44.7769 126.854 44.8354 126.854 44.9523 126.854H46.414C46.531 126.854 46.6479 126.854 46.7648 126.854C60.7973 126.854 74.8298 126.854 88.8622 126.795C89.0961 126.795 89.3885 126.795 89.6808 126.854H91.9026C92.4873 126.679 92.8966 126.269 92.9551 125.334C93.1305 122.586 90.5578 123.58 88.9792 123.346C85.1203 122.761 81.0275 121.943 79.9166 117.674C78.8641 113.64 78.8641 109.313 78.3379 104.753C80.0335 104.753 81.1444 104.753 82.3138 104.753C97.2233 104.753 112.133 104.753 127.042 104.753C132.421 104.753 134 103.174 134 97.795C133.883 70.8994 133.883 44.1208 133.883 17.3422ZM4.95978 82.3593C4.95978 60.9598 4.95978 39.5018 4.95978 18.1023C5.01825 13.951 5.01825 13.951 8.93565 13.951C48.1096 13.951 87.2251 13.951 126.399 13.951C130.375 13.951 130.375 13.951 130.375 17.7515C130.375 39.3848 130.375 61.0182 130.375 82.5932V85.6335H4.95978V82.3593ZM79.0395 123.112H56.4122C61.1481 117.616 59.2187 110.892 60.8558 104.87H74.5374C76.233 110.892 74.2451 117.616 79.0395 123.112ZM130.258 99.0229C130.2 99.7829 129.03 100.66 128.212 101.128C127.627 101.479 126.691 101.186 125.931 101.186C87.1082 101.186 48.2266 101.186 9.4034 101.186C5.01825 101.186 5.01825 101.186 5.01825 96.8595C5.01825 94.4623 5.01825 92.0651 5.01825 89.4925H130.433C130.375 92.8252 130.55 95.924 130.258 99.0229Z" fill="white"/>
<path d="M71.9643 52.0137C71.9643 55.6388 72.0228 58.6207 71.9643 61.661C71.9059 65.1107 69.4502 66.5724 66.5852 64.7014C58.5165 59.4392 50.5063 54.0601 42.4961 48.6225C40.7421 47.4531 40.0404 45.7576 41.3852 43.8866C42.73 42.0156 44.5425 42.191 46.2381 43.3603C51.6757 46.9269 57.1133 50.552 62.6093 54.177C63.3694 54.6448 64.1295 55.1125 65.5912 55.9896C65.5912 52.8323 65.4158 50.1427 65.6497 47.4531C65.7666 45.933 66.2929 43.7112 67.2868 43.2434C68.5147 42.7172 70.678 43.3019 71.9643 44.1204C79.3314 48.7979 86.523 53.7678 93.8316 58.6207C94.2993 58.913 94.7671 59.2053 95.1764 59.5562C96.6966 60.8425 97.2812 62.4211 96.0534 64.1752C94.8256 65.8708 93.13 65.9877 91.4344 64.8768C86.0553 61.3102 80.7346 57.7436 75.3555 54.177C74.3031 53.5924 73.426 52.9492 71.9643 52.0137Z" stroke="white" stroke-width="4" stroke-miterlimit="10"/>
</g>
<defs>
<clipPath id="clip0">
<rect width="134" height="134" fill="white"/>
</clipPath>
</defs>
</svg>

<svg width="134" height="134" fill="none" xmlns="http://www.w3.org/2000/svg"><g clip-path="url(#clip0)"><path d="M133.883 17.342c0-5.379-1.579-6.9-7.016-6.9H8.467c-5.378 0-6.957 1.521-6.957 6.9v80.395c0 5.379 1.579 6.957 6.958 6.957h48.646c-.351 3.742-.643 6.9-.936 10.115-.409 4.386-2.28 6.783-6.49 7.835-1.695.409-3.508.351-5.145.76-.526.117-.994.585-1.403 1.053.058.234.058.409.058.643v.526c.468.409.936.877 1.52 1.169.059.059.117.059.234.059h1.812c14.033 0 28.066 0 42.098-.059.234 0 .526 0 .819.059h2.222c.584-.175.994-.585 1.052-1.52.175-2.748-2.397-1.754-3.976-1.988-3.859-.585-7.951-1.403-9.062-5.672-1.053-4.034-1.053-8.361-1.58-12.921h48.705c5.379 0 6.958-1.579 6.958-6.958-.117-26.896-.117-53.674-.117-80.453zM4.96 82.36V18.102c.058-4.151.058-4.151 3.976-4.151h117.463c3.976 0 3.976 0 3.976 3.8v67.882H4.96V82.36zm74.08 40.753H56.412c4.736-5.496 2.807-12.22 4.444-18.242h13.681c1.696 6.022-.292 12.746 4.502 18.242zm51.218-24.09c-.058.76-1.228 1.638-2.046 2.106-.585.351-1.521.058-2.281.058H9.403c-4.385 0-4.385 0-4.385-4.327v-7.366h125.415c-.058 3.332.117 6.431-.175 9.53z" fill="#fff"/><path d="M71.964 52.014c0 3.625.059 6.607 0 9.647-.058 3.45-2.514 4.911-5.379 3.04-8.068-5.262-16.079-10.64-24.089-16.078-1.754-1.17-2.456-2.865-1.11-4.736 1.344-1.871 3.156-1.696 4.852-.527 5.438 3.567 10.875 7.192 16.371 10.817.76.468 1.52.935 2.982 1.813 0-3.158-.175-5.847.059-8.537.117-1.52.643-3.742 1.637-4.21 1.228-.526 3.391.059 4.677.877 7.367 4.678 14.559 9.648 21.868 14.5.467.293.935.585 1.344.936 1.52 1.287 2.105 2.865.877 4.62-1.227 1.695-2.923 1.812-4.619.7-5.379-3.566-10.7-7.132-16.078-10.699-1.053-.585-1.93-1.228-3.392-2.163z" stroke="#fff" stroke-width="4" stroke-miterlimit="10"/></g><defs><clipPath id="clip0"><path fill="#fff" d="M0 0h134v134H0z"/></clipPath></defs></svg>
